X: 6881
T: Charrada De Bercimuelle
R: three-two
M: 3/2
K: Gminor
M:5/8
Ac eze|de c3|Ac efe|de c3|
1B/c/d ccA|BA G3|B/c/d ccA|Bc A3:|
A2 ddd|ddd3c|AB c2A|Bc d2c|
AB c2A|Bc d2c|AB c2A|Bc A3|A2 A3||
|:B/c/d ccA|BA G3|B/c/d ccA|Bc A3|A2 A3:|

